src/lib/packages/icons/src/assets/filled/download-alt.svg

<svg width="24" height="24" viewBox="0 0 24 24" fill="none" xmlns="http://www.w3.org/2000/svg">
<path d="M5.31201 10.709C4.66101 10.094 5.09594 8.999 5.99194 9H8.41406V4C8.41406 3.448 8.86206 3 9.41406 3H15.4141C15.9661 3 16.4141 3.448 16.4141 4V9H19.0081C19.9041 9 20.339 10.094 19.688 10.709L13.4131 16.637C12.9011 17.121 12.0999 17.121 11.5869 16.637L5.31201 10.709ZM19.5 20.25H5.5C5.086 20.25 4.75 20.586 4.75 21C4.75 21.414 5.086 21.75 5.5 21.75H19.5C19.914 21.75 20.25 21.414 20.25 21C20.25 20.586 19.914 20.25 19.5 20.25Z" fill="currentColor"/>
</svg>

<svg xmlns="http://www.w3.org/2000/svg" width="24" height="24" fill="none"><path fill="currentColor" d="M5.312 10.709c-.651-.615-.216-1.71.68-1.709h2.422V4a1 1 0 0 1 1-1h6a1 1 0 0 1 1 1v5h2.594c.896 0 1.331 1.094.68 1.709l-6.275 5.928a1.33 1.33 0 0 1-1.826 0l-6.275-5.928ZM19.5 20.25h-14a.75.75 0 0 0 0 1.5h14a.75.75 0 0 0 0-1.5Z"/></svg>
